X:9357
T:Laureen's
R:march
C:Dougie MacDonald
O:20th century Cape Breton
D:A Miner
N:Bookings,Mechanicals etc.
N:..... Dougie MacDonald <dougie@cranfordpub.com>
N:More tunes and information <http://www.cranfordpub.com/dougie>
Z:This abc transcription is for personal use only,
Z:provided this notice remains attached.
Z:Used by permission of the composer.
Z:Paul Stewart Cranford 
Q:244
L:1/8
M:C|
K:D
zG|F2 ({F/G/}A2) A2 A<d|B>AF>A Bf|e>ee<f d2 e>f|g>fe<d B>AB<d|!
F2({F/G/}A2) G>FG>A|B>AF>A B<dc<d|B<dcFE>G|F2 D2 D2:|!
f>g|:f2 d>g f>dc<d|f>ed>e f<aa>f|g>gg>a ({a}b)>af<d|e4 e2 a>g|!
[1f2 d>g f>dc<d|f>ed>e f<aa>f|g>gg<f e>cA<c|({c}d4) d2 a>g:|!
[2f>dd<f ({d}e)>dc<A|B2 B/c/d B>AF<D|E>DE<F A>GF<E| D4 D2 D|]!
